icons/html5-fill.svg

<svg viewBox="0 0 24 24" fill="currentColor" xmlns="http://www.w3.org/2000/svg"><path d="M12 18.1778L16.6192 16.9222L17.2434 10.1444H9.02648L8.82219 7.88889H17.4477L17.6747 5.67778H6.32535L6.96091 12.3556H14.7806L14.5195 15.2222L12 15.8889L9.48045 15.2222L9.32156 13.3778H7.0517L7.38083 16.9222L12 18.1778ZM3 2H21L19.377 20L12 22L4.62295 20L3 2Z"/></svg>

<svg xmlns="http://www.w3.org/2000/svg" viewBox="0 0 24 24">
    <g>
        <path fill="none" d="M0 0h24v24H0z"/>
        <path fill-rule="nonzero" d="M12 18.178l4.62-1.256.623-6.778H9.026L8.822 7.89h8.626l.227-2.211H6.325l.636 6.678h7.82l-.261 2.866-2.52.667-2.52-.667-.158-1.844h-2.27l.329 3.544L12 18.178zM3 2h18l-1.623 18L12 22l-7.377-2L3 2z"/>
    </g>
</svg>
